X: 1
T: Vu bist du geveyn far Prohibishn #2    [Dm]
N: From transcription by Glenn Dickson
Z: 2018 John Chambers <jc:trillian.mit.edu>
S: Transcription by Yaron Shragai 2018
M: 4/4
L: 1/8
K: Dm
"A"[|\
"Dm"FF F/F/F zFED | "A"EE E/E/E zED^C | "Gm"^CD2D CDCB, | "A"A,4 z4 |
"Dm"FF F/F/F zFED | "Gm"GG G/G/G zGFE | "A"^GA2A GFEF | "Dm"D4 "C7"zCFG |]
"B"[|\
"F"A4 zGFG | F4 zCFG | AAAA "D7"ABcA | "Gm"G4 "C7"zCFG |
"F"A4 "C7"zGFG | "F"F4 "A"z4 | "Dm"F2D2 "A7"E2^C2 | "Dm"D4 z4 |]

%%sep 1 1 500
%%sep 1 1 500

